X: 1
T: reel du Grandp\`ere
O: Qu\'ebec
R: reel
Z: 2015 John Chambers <jc:trillian.mit.edu>
S: printed copy of unknown origin, via Paul Lizotte
M: C|
L: 1/8
K: G
(3DEF |\
"G"G2FG (3EGE DF | GABc d3d | "C"ef (3gfe "G"dBGB |\
[1,3 "Am"ABAG "D7"F2 :|2,4 "D7"ABAF "G"G2 :|[K:D]
|: AG |\
"D"FA- AA ABAG | FAde f3f | "G"gfeg "D"fedf |\
[1,3 "Em"edcB "A7"AB :|2,4 "A7"efec "D"d2 :|
